icons/svg/apple-finder.svg

﻿<?xml version="1.0" encoding="utf-8"?>
<!DOCTYPE svg PUBLIC "-//W3C//DTD SVG 1.1//EN" "http://www.w3.org/Graphics/SVG/1.1/DTD/svg11.dtd">
<svg xmlns="http://www.w3.org/2000/svg" xmlns:xlink="http://www.w3.org/1999/xlink" version="1.1" baseProfile="full" width="24" height="24" viewBox="0 0 24.00 24.00" enable-background="new 0 0 24.00 24.00" xml:space="preserve">
	<path fill="#000000" fill-opacity="1" stroke-width="0.2" stroke-linejoin="round" d="M 4,4L 11.8873,4C 12.457,2.9074 13.1329,1.87689 13.9327,1.00379L 15.0391,2.11012C 14.6138,2.70348 14.2313,3.34043 13.8873,4L 20,4C 21.1046,4 22,4.89543 22,6L 22,19C 22,20.1046 21.1046,21 20,21L 14.9255,21L 15.261,22.2293L 13.4272,22.9545L 12.9269,21L 4,21C 2.89543,21 2,20.1046 2,19L 2,6C 2,4.89543 2.89543,4 4,4 Z M 4,6.00001L 4,19L 12.5403,19C 12.4879,18.6709 12.4402,18.3359 12.3988,17.9966C 12.2666,17.9989 12.1336,18 12,18C 9.24719,18 6.78304,17.5194 5.13216,16.7621L 6.04254,15.1234C 7.00329,15.6407 9.17203,16 12,16C 12.0797,16 12.1588,15.9997 12.2375,15.9992C 12.2133,15.3318 12.2213,14.6614 12.2708,14L 8.99999,14C 8.99999,14 9.40322,9.96775 10.9778,6.00001L 4,6.00001 Z M 20,19L 20,6.00001L 12.9778,6.00001C 12.0974,8.21856 11.5832,10.4573 11.3009,12L 14.1722,12C 13.9778,13.2797 13.9661,14.6213 14.0641,15.9306C 15.8749,15.8023 17.2467,15.5061 17.9575,15.1234L 18.8678,16.7621C 17.6912,17.3018 16.1014,17.701 14.2884,17.8859C 14.3462,18.2655 14.4107,18.6377 14.4797,19L 20,19 Z M 6,8L 8,8L 8,11L 6,11L 6,8 Z M 16,8L 18,8L 18,11L 16,11L 16,8 Z "/>
</svg>

<svg xmlns="http://www.w3.org/2000/svg" version="1.1" baseProfile="full" width="24" height="24" viewBox="0 0 24.00 24.00" xml:space="preserve"><path fill="#000" fill-opacity="1" stroke-width=".2" stroke-linejoin="round" d="M4 4h7.887c.57-1.093 1.246-2.123 2.046-2.996L15.04 2.11c-.426.593-.81 1.23-1.153 1.89H20c1.105 0 2 .895 2 2v13c0 1.105-.895 2-2 2h-5.075l.336 1.23-1.833.724-.5-1.954H4c-1.105 0-2-.895-2-2V6c0-1.105.895-2 2-2zm0 2v13h8.54c-.052-.33-.1-.664-.14-1.003-.133.002-.266.003-.4.003-2.753 0-5.217-.48-6.868-1.238l.91-1.64c.96.52 3.13.878 5.958.878h.238c-.025-.668-.017-1.34.033-2H9s.403-4.032 1.978-8H4zm16 13V6h-7.022c-.88 2.22-1.395 4.457-1.677 6h2.872c-.194 1.28-.206 2.62-.108 3.93 1.81-.128 3.183-.424 3.893-.807l.91 1.64c-1.176.54-2.766.938-4.58 1.123.06.38.124.752.193 1.114H20zM6 8h2v3H6V8zm10 0h2v3h-2V8z"/></svg>
